design-system/icons/bedtime--labs-icons.svg

<svg width="21" height="20" viewBox="0 0 21 20" fill="none" xmlns="http://www.w3.org/2000/svg">
<g clip-path="url(#clip0_234_279)">
<mask id="mask0_234_279" style="mask-type:alpha" maskUnits="userSpaceOnUse" x="0" y="0" width="24" height="24">
<rect x="0.833374" width="23.0833" height="23.0833" fill="currentColor"/>
</mask>
<g mask="url(#mask0_234_279)">
<path d="M10.9167 18.1739C9.7223 18.1739 8.5973 17.9447 7.54175 17.4864C6.48619 17.0281 5.56605 16.4065 4.78133 15.6218C3.99661 14.8371 3.37508 13.9169 2.91675 12.8614C2.45841 11.8058 2.22925 10.6808 2.22925 9.48639C2.22925 7.70861 2.71536 6.08361 3.68758 4.61139C4.6598 3.13917 5.9723 2.08361 7.62508 1.44472C8.06953 1.26417 8.48967 1.29542 8.8855 1.53847C9.28133 1.78153 9.48619 2.12528 9.50008 2.56972C9.52786 3.69472 9.73272 4.77111 10.1147 5.79889C10.4966 6.82667 11.0834 7.73639 11.8751 8.52806C12.6667 9.31972 13.5765 9.91 14.6042 10.2989C15.632 10.6878 16.7084 10.8822 17.8334 10.8822C18.2779 10.8822 18.6251 11.0593 18.8751 11.4135C19.1251 11.7676 19.1737 12.1531 19.0209 12.5697C18.4098 14.2781 17.3612 15.6392 15.8751 16.6531C14.389 17.6669 12.7362 18.1739 10.9167 18.1739Z" fill="currentColor"/>
</g>
</g>
<defs>
<clipPath id="clip0_234_279">
<rect width="20" height="20" fill="white" transform="translate(0.833374)"/>
</clipPath>
</defs>
</svg>

<svg xmlns="http://www.w3.org/2000/svg" width="21" height="20" fill="none" viewBox="0 0 21 20"><g clip-path="url(#a)"><mask id="b" width="24" height="24" x="0" y="0" maskUnits="userSpaceOnUse" style="mask-type:alpha"><path fill="currentColor" d="M.833 0h23.083v23.083H.833z"/></mask><g mask="url(#b)"><path fill="currentColor" d="M10.917 18.174q-1.792 0-3.375-.688a8.8 8.8 0 0 1-2.76-1.864 8.8 8.8 0 0 1-1.865-2.76 8.4 8.4 0 0 1-.688-3.376 8.66 8.66 0 0 1 1.459-4.875 8.1 8.1 0 0 1 3.937-3.166q.667-.27 1.26.093.594.365.615 1.032a9.9 9.9 0 0 0 .615 3.229 7.5 7.5 0 0 0 1.76 2.73 7.65 7.65 0 0 0 2.73 1.77 9 9 0 0 0 3.228.583q.667 0 1.042.532.375.531.146 1.156-.917 2.563-3.146 4.083t-4.958 1.52"/></g></g><defs><clipPath id="a"><path fill="#fff" d="M.833 0h20v20h-20z"/></clipPath></defs></svg>
